X: 77
T:Jack A' Lent (Lord Carnarvon's Jig)
M:4/4
L:1/8
Q:160
S:Playford
O:Manuscript
K:G
d4 d2 cB|AGAB c2 BA| G2 G2 G2 g2| f4 e4 | d4 d2 cB|AGAB c2 BA| G2 G2 G2 g2|f4 e4|| B3 c d2 cB| AGAB ABcd| BcBA G2 ga| fefg e4| B3 c d2 cB| AGAB ABcd| BcBA G2 ga|fefg e4:|

